; generated by Slic3r 1.2.9 on 2017-04-16 at 13:11:04

; external perimeters extrusion width = 0.40mm
; perimeters extrusion width = 0.48mm
; infill extrusion width = 0.48mm
; solid infill extrusion width = 0.48mm
; top infill extrusion width = 0.48mm

M107
M104 S210 ; set temperature
G28 ; home all axes
;G1 Z5 F5000 ; lift nozzle

M109 S210 ; wait for temperature to be reached
G21 ; set units to millimeters
G90 ; use absolute coordinates
M82 ; use absolute distances for extrusion
G92 E0
G1 Z0.300 F3600.000
G1 E-2.00000 F600.00000
G92 E0
G1 X81.215 Y79.238 F3600.000
G1 E2.00000 F600.00000
G1 X81.898 Y78.633 E2.06095 F1800.000
G1 X83.301 Y77.665 E2.17485
G1 X91.308 Y73.463 E2.77890
G1 X92.901 Y72.859 E2.89273
G1 X93.787 Y72.640 E2.95369
G1 X95.479 Y72.435 E3.06758
G1 X104.521 Y72.435 E3.67163
G1 X106.212 Y72.640 E3.78544
G1 X107.099 Y72.858 E3.84642 F1800.000
G1 X108.692 Y73.463 E3.96030
G1 X116.699 Y77.665 E4.56435
G1 X118.102 Y78.633 E4.67825
G1 X118.784 Y79.238 E4.73916
G1 X119.914 Y80.514 E4.85302
G1 X125.051 Y87.955 E5.45707
G1 X125.843 Y89.465 E5.57096
G1 X126.166 Y90.317 E5.63187
G1 X126.574 Y91.972 E5.74575
G1 X127.664 Y100.948 E6.34980
G1 X127.664 Y102.653 E6.46369
G1 X127.554 Y103.558 E6.52460
G1 X127.146 Y105.213 E6.63848
G1 X123.940 Y113.668 E7.24254
G1 X123.148 Y115.177 E7.35642
G1 X122.630 Y115.927 E7.41733
G1 X121.499 Y117.203 E7.53121
G1 X114.731 Y123.199 E8.13526
G1 X113.329 Y124.167 E8.24911
G1 X112.521 Y124.591 E8.31005
G1 X110.927 Y125.196 E8.42393
G1 X102.148 Y127.360 E9.02798
G1 X100.456 Y127.565 E9.14186
G1 X99.544 Y127.565 E9.20277
G1 X97.852 Y127.360 E9.31666
G1 X89.073 Y125.196 E9.92071
G1 X87.479 Y124.591 E10.03459
G1 X86.671 Y124.168 E10.09550
G1 X85.269 Y123.199 E10.20938
G1 X78.501 Y117.203 E10.81343
G1 X77.370 Y115.927 E10.92731
G1 X76.852 Y115.177 E10.98824
G1 X76.060 Y113.668 E11.10210
G1 X72.854 Y105.213 E11.70616
G1 X72.446 Y103.558 E11.82004
G1 X72.336 Y102.652 E11.88102
G1 X72.336 Y100.948 E11.99484
G1 X73.426 Y91.972 E12.59889
G1 X73.834 Y90.317 E12.71276
G1 X74.157 Y89.465 E12.77367
G1 X74.949 Y87.955 E12.88756
G1 X80.086 Y80.514 E13.49162
G1 X81.176 Y79.283 E13.60143
G1 X81.571 Y79.639 F3600.000
G1 X82.253 Y79.034 E13.66237 F1800.000
G1 X83.550 Y78.139 E13.76765
G1 X91.557 Y73.937 E14.37170
G1 X93.029 Y73.379 E14.47691
G1 X93.915 Y73.160 E14.53786
G1 X95.479 Y72.970 E14.64312
G1 X104.521 Y72.970 E15.24717
G1 X106.084 Y73.160 E15.35236
G1 X106.970 Y73.379 E15.41334 F1800.000
G1 X108.443 Y73.937 E15.51859
G1 X116.450 Y78.139 E16.12265
G1 X117.747 Y79.034 E16.22792
G1 X118.429 Y79.639 E16.28883
G1 X119.474 Y80.818 E16.39406
G1 X124.610 Y88.259 E16.99812
G1 X125.342 Y89.655 E17.10338
G1 X125.666 Y90.507 E17.16429
G1 X126.043 Y92.037 E17.26954
G1 X127.133 Y101.013 E17.87359
G1 X127.133 Y102.588 E17.97885
G1 X127.023 Y103.494 E18.03976
G1 X126.646 Y105.023 E18.14502
G1 X123.439 Y113.478 E18.74907
G1 X122.707 Y114.873 E18.85433
G1 X122.189 Y115.623 E18.91523
G1 X121.144 Y116.802 E19.02049
G1 X114.376 Y122.798 E19.62454
G1 X113.080 Y123.693 E19.72977
G1 X112.272 Y124.117 E19.79071
G1 X110.799 Y124.676 E19.89596
G1 X102.020 Y126.840 E20.50001
G1 X100.456 Y127.030 E20.60527
G1 X99.544 Y127.030 E20.66618
G1 X97.980 Y126.840 E20.77144
G1 X89.201 Y124.676 E21.37549
G1 X87.728 Y124.117 E21.48074
G1 X86.920 Y123.693 E21.54165
G1 X85.624 Y122.798 E21.64691
G1 X78.856 Y116.802 E22.25096
G1 X77.811 Y115.623 E22.35621
G1 X77.293 Y114.873 E22.41713
G1 X76.561 Y113.478 E22.52237
G1 X73.354 Y105.023 E23.12643
G1 X72.977 Y103.494 E23.23169
G1 X72.868 Y102.597 E23.29205
G1 X72.867 Y101.013 E23.39785
G1 X73.957 Y92.037 E24.00190
G1 X74.334 Y90.507 E24.10715
G1 X74.658 Y89.655 E24.16806
G1 X75.390 Y88.259 E24.27333
G1 X80.526 Y80.818 E24.87738
G1 X81.531 Y79.684 E24.97857
G1 E22.97857 F600.00000
G92 E0
G1 X106.528 Y104.747 F3600.000
G1 E2.00000 F600.00000
G1 X104.848 Y106.426 E2.15866 F1800.000
G1 X102.549 Y107.598 E2.33106
G1 X100.000 Y108.002 E2.50346
G1 X97.451 Y107.598 E2.67586
G1 X95.153 Y106.427 E2.84820
G1 X93.331 Y104.610 E3.02003
G1 X92.155 Y102.302 E3.19309
G1 X91.752 Y99.753 E3.36550
G1 X92.155 Y97.204 E3.53790
G1 X93.327 Y94.905 E3.71030
G1 X95.152 Y93.080 E3.88270
G1 X97.451 Y91.909 E4.05510
G1 X99.977 Y91.509 E4.22592 F1800.000
G1 X102.547 Y91.908 E4.39969
G1 X104.857 Y93.085 E4.57290
G1 X106.673 Y94.906 E4.74473
G1 X107.845 Y97.204 E4.91707
G1 X108.248 Y99.753 E5.08947
G1 X107.844 Y102.304 E5.26201
G1 X106.656 Y104.618 E5.43578
G1 X106.570 Y104.704 E5.44394
G1 X106.149 Y104.368 F3600.000
G1 X104.529 Y105.988 E5.59693 F1800.000
G1 X102.381 Y107.082 E5.75799
G1 X100.000 Y107.459 E5.91906
G1 X97.619 Y107.082 E6.08013
G1 X95.471 Y105.988 E6.24116
G1 X93.770 Y104.291 E6.40165
G1 X92.671 Y102.134 E6.56335
G1 X92.294 Y99.753 E6.72442
G1 X92.671 Y97.372 E6.88549
G1 X93.766 Y95.224 E7.04655
G1 X95.471 Y93.519 E7.20762
G1 X97.619 Y92.424 E7.36869
G1 X99.977 Y92.051 E7.52823 F1800.000
G1 X102.380 Y92.424 E7.69066
G1 X104.538 Y93.523 E7.85246
G1 X106.235 Y95.224 E8.01295
G1 X107.329 Y97.372 E8.17398
G1 X107.706 Y99.753 E8.33505
G1 X107.329 Y102.136 E8.49620
G1 X106.191 Y104.326 E8.66106
G1 X105.770 Y103.989 F3600.000
G1 X104.211 Y105.549 E8.80838 F900.000
G1 X102.214 Y106.566 E8.95811
G1 X100.000 Y106.917 E9.10784
G1 X97.786 Y106.566 E9.25758
G1 X95.789 Y105.549 E9.40729
G1 X94.209 Y103.972 E9.55645
G1 X93.187 Y101.967 E9.70680
G1 X92.836 Y99.753 E9.85653
G1 X93.187 Y97.539 E10.00627
G1 X94.204 Y95.542 E10.15600
G1 X95.789 Y93.958 E10.30573
G1 X97.786 Y92.940 E10.45546
G1 X99.978 Y92.593 E10.60372 F900.000
G1 X102.213 Y92.940 E10.75482
G1 X104.219 Y93.962 E10.90520
G1 X105.796 Y95.543 E11.05436
G1 X106.813 Y97.539 E11.20408
G1 X107.164 Y99.753 E11.35381
G1 X106.813 Y101.967 E11.50357
G1 X105.801 Y103.939 E11.65161
G1 X105.913 Y104.363 F3600.000
G1 X110.946 Y108.419 F3600.000
G1 X109.193 Y110.101 E11.81390 F1800.000
G1 X107.284 Y111.666 E11.97882
G1 X108.379 Y113.115 E12.10015
G1 X108.658 Y113.756 E12.14687
G1 X108.831 Y114.569 E12.20237
G1 X108.900 Y115.516 E12.26583
G1 X108.853 Y116.621 E12.33969
G1 X107.917 Y116.032 E12.41355
G1 X107.177 Y115.437 E12.47700
G1 X106.606 Y114.833 E12.53251
G1 X106.236 Y114.239 E12.57922
G1 X105.666 Y112.515 E12.70055
G1 X103.293 Y113.197 E12.86547
G1 X100.913 Y113.685 E13.02778
G1 X101.210 Y115.478 E13.14922
G1 X101.159 Y116.176 E13.19594
G1 X100.934 Y116.975 E13.25144
G1 X100.555 Y117.846 E13.31489
G1 X100.000 Y118.803 E13.38875
G1 X99.445 Y117.846 E13.46262
G1 X99.066 Y116.975 E13.52607
G1 X98.841 Y116.176 E13.58157
G1 X98.790 Y115.478 E13.62829
G1 X99.087 Y113.685 E13.74973
G1 X96.707 Y113.197 E13.91204
G1 X94.334 Y112.515 E14.07695
G1 X93.764 Y114.239 E14.19829
G1 X93.394 Y114.833 E14.24499
G1 X92.823 Y115.437 E14.30051
G1 X92.083 Y116.032 E14.36396
G1 X91.147 Y116.621 E14.43782
G1 X91.100 Y115.516 E14.51168
G1 X91.169 Y114.569 E14.57514
G1 X91.342 Y113.756 E14.63064
G1 X91.621 Y113.115 E14.67735
G1 X92.716 Y111.666 E14.79869
G1 X90.807 Y110.101 E14.96360
G1 X89.054 Y108.419 E15.12590
G1 X87.746 Y109.682 E15.24735
G1 X87.143 Y110.036 E15.29406
G1 X86.357 Y110.305 E15.34956
G1 X85.425 Y110.488 E15.41302
G1 X84.323 Y110.575 E15.48688
G1 X84.794 Y109.575 E15.56074
G1 X85.296 Y108.768 E15.62420
G1 X85.826 Y108.129 E15.67970
G1 X86.371 Y107.690 E15.72641
G1 X88.014 Y106.916 E15.84774
G1 X87.051 Y104.643 E16.01265
G1 X86.280 Y102.339 E16.17496
G1 X84.535 Y102.850 E16.29641
G1 X83.837 Y102.883 E16.34312
G1 X83.016 Y102.756 E16.39863
G1 X82.106 Y102.485 E16.46208
G1 X81.089 Y102.049 E16.53594
G1 X81.972 Y101.383 E16.60981
G1 X82.791 Y100.902 E16.67326
G1 X83.558 Y100.582 E16.72877
G1 X84.244 Y100.448 E16.77548
G1 X86.058 Y100.526 E16.89681
G1 X86.262 Y98.065 E17.06173
G1 X86.650 Y95.667 E17.22404
G1 X84.868 Y95.308 E17.34549
G1 X84.234 Y95.013 E17.39220
G1 X83.566 Y94.519 E17.44770
G1 X82.886 Y93.856 E17.51116
G1 X82.188 Y92.998 E17.58502
G1 X83.279 Y92.818 E17.65888
G1 X84.228 Y92.773 E17.72234
G1 X85.056 Y92.846 E17.77785
G1 X85.726 Y93.046 E17.82455
G1 X87.298 Y93.959 E17.94600
G1 X88.598 Y91.906 E18.10831
G1 X90.077 Y89.930 E18.27322
G1 X88.667 Y88.785 E18.39454
G1 X88.243 Y88.229 E18.44126
G1 X87.880 Y87.482 E18.49676
G1 X87.587 Y86.578 E18.56022
G1 X87.368 Y85.495 E18.63408
G1 X88.417 Y85.842 E18.70794
G1 X89.279 Y86.243 E18.77139
G1 X89.977 Y86.692 E18.82690
G1 X90.478 Y87.180 E18.87361
G1 X91.445 Y88.718 E18.99495
G1 X93.585 Y87.488 E19.15987
G1 X95.779 Y86.445 E19.32217
G1 X95.062 Y84.775 E19.44362
G1 X94.945 Y84.085 E19.49034
G1 X94.971 Y83.255 E19.54584
G1 X95.131 Y82.319 E19.60929
G1 X95.441 Y81.257 E19.68316
G1 X96.209 Y82.053 E19.75702
G1 X96.785 Y82.808 E19.82047
G1 X97.195 Y83.531 E19.87598
G1 X97.412 Y84.196 E19.92269
G1 X97.553 Y86.006 E20.04402
G1 X100.019 Y85.912 E20.20894
G1 X102.447 Y86.008 E20.37124
G1 X102.588 Y84.196 E20.49269
G1 X102.805 Y83.531 E20.53940
G1 X103.215 Y82.808 E20.59491
G1 X103.791 Y82.053 E20.65836
G1 X104.559 Y81.257 E20.73222
G1 X104.869 Y82.319 E20.80609
G1 X105.029 Y83.255 E20.86954
G1 X105.055 Y84.085 E20.92504
G1 X104.938 Y84.775 E20.97176
G1 X104.221 Y86.445 E21.09321
G1 X106.415 Y87.488 E21.25552
G1 X108.555 Y88.718 E21.42043
G1 X109.522 Y87.180 E21.54177
G1 X110.023 Y86.692 E21.58848
G1 X110.721 Y86.243 E21.64399
G1 X111.583 Y85.842 E21.70744
G1 X112.632 Y85.495 E21.78131
G1 X112.413 Y86.578 E21.85517
G1 X112.120 Y87.482 E21.91862
G1 X111.757 Y88.229 E21.97412
G1 X111.333 Y88.785 E22.02084
G1 X109.923 Y89.930 E22.14216
G1 X111.402 Y91.906 E22.30707
G1 X112.702 Y93.959 E22.46938
G1 X114.274 Y93.046 E22.59083
G1 X114.944 Y92.846 E22.63754
G1 X115.772 Y92.773 E22.69304
G1 X116.721 Y92.818 E22.75650
G1 X117.812 Y92.998 E22.83036
G1 X117.114 Y93.856 E22.90422
G1 X116.434 Y94.519 E22.96768
G1 X115.766 Y95.013 E23.02318
G1 X115.132 Y95.308 E23.06989
G1 X113.350 Y95.667 E23.19135
G1 X113.738 Y98.065 E23.35365
G1 X113.942 Y100.526 E23.51857
G1 X115.756 Y100.448 E23.63991
G1 X116.442 Y100.582 E23.68662
G1 X117.209 Y100.902 E23.74212
G1 X118.028 Y101.383 E23.80557
G1 X118.911 Y102.049 E23.87944
G1 X117.894 Y102.485 E23.95330
G1 X116.984 Y102.756 E24.01676
G1 X116.163 Y102.883 E24.07226
G1 X115.465 Y102.850 E24.11897
G1 X113.720 Y102.339 E24.24042
G1 X112.949 Y104.643 E24.40273
G1 X111.986 Y106.916 E24.56764
G1 X113.629 Y107.690 E24.68897
G1 X114.174 Y108.129 E24.73568
G1 X114.704 Y108.768 E24.79118
G1 X115.206 Y109.575 E24.85464
G1 X115.677 Y110.575 E24.92850
G1 X114.575 Y110.488 E25.00236
G1 X113.643 Y110.305 E25.06582
G1 X112.857 Y110.036 E25.12132
G1 X112.254 Y109.682 E25.16804
G1 X110.990 Y108.461 E25.28547
G1 X110.945 Y109.162 F3600.000
G1 X109.549 Y110.502 E25.41473 F1800.000
G1 X108.022 Y111.754 E25.54664
G1 X108.845 Y112.843 E25.63784
G1 X109.171 Y113.592 E25.69242
G1 X109.362 Y114.493 E25.75397
G1 X109.436 Y115.508 E25.82195
G1 X109.390 Y116.598 E25.89486
G1 X109.270 Y117.415 E25.95003
G1 X108.529 Y117.050 E26.00520
G1 X107.606 Y116.469 E26.07811
G1 X106.812 Y115.831 E26.14608
G1 X106.180 Y115.162 E26.20764
G1 X105.748 Y114.468 E26.26221
G1 X105.319 Y113.172 E26.35341
G1 X103.421 Y113.718 E26.48533
G1 X101.526 Y114.106 E26.61459
G1 X101.749 Y115.454 E26.70585
G1 X101.689 Y116.269 E26.76043
G1 X101.440 Y117.156 E26.82199
G1 X101.034 Y118.088 E26.88995
G1 X100.486 Y119.032 E26.96287
G1 X100.000 Y119.700 E27.01804
G1 X99.514 Y119.032 E27.07321
G1 X98.966 Y118.088 E27.14613
G1 X98.560 Y117.156 E27.21409
G1 X98.311 Y116.269 E27.27565
G1 X98.251 Y115.454 E27.33023
G1 X98.474 Y114.106 E27.42149
G1 X96.579 Y113.718 E27.55075
G1 X94.681 Y113.172 E27.68267
G1 X94.252 Y114.468 E27.77387
G1 X93.820 Y115.162 E27.82844
G1 X93.188 Y115.831 E27.89000
G1 X92.394 Y116.469 E27.95797
G1 X91.471 Y117.050 E28.03088
G1 X90.730 Y117.415 E28.08605
G1 X90.610 Y116.598 E28.14122
G1 X90.564 Y115.508 E28.21413
G1 X90.638 Y114.493 E28.28210
G1 X90.829 Y113.592 E28.34366
G1 X91.155 Y112.843 E28.39824
G1 X91.978 Y111.754 E28.48944
G1 X90.451 Y110.502 E28.62135
G1 X89.055 Y109.162 E28.75061
G1 X88.072 Y110.111 E28.84188
G1 X87.368 Y110.525 E28.89645
G1 X86.496 Y110.824 E28.95801
G1 X85.498 Y111.020 E29.02598
G1 X84.409 Y111.105 E29.09890
G1 X83.589 Y111.085 E29.15370
G1 X83.859 Y110.303 E29.20892
G1 X84.323 Y109.318 E29.28167
G1 X84.860 Y108.454 E29.34964
G1 X85.449 Y107.745 E29.41120
G1 X86.085 Y107.233 E29.46577
G1 X87.320 Y106.651 E29.55697
G1 X86.550 Y104.833 E29.68888
G1 X85.936 Y102.998 E29.81814
G1 X84.625 Y103.382 E29.90941
G1 X83.809 Y103.421 E29.96399
G1 X82.898 Y103.280 E30.02554
G1 X81.923 Y102.989 E30.09352
G1 X80.920 Y102.559 E30.16643
G1 X80.198 Y102.158 E30.22160
G1 X80.803 Y101.595 E30.27677
G1 X81.674 Y100.937 E30.34969
G1 X82.551 Y100.421 E30.41766
G1 X83.401 Y100.067 E30.47921
G1 X84.203 Y99.910 E30.53379
G1 X85.567 Y99.968 E30.62499
G1 X85.730 Y98.000 E30.75691
G1 X86.039 Y96.090 E30.88617
G1 X84.699 Y95.821 E30.97745
G1 X83.959 Y95.476 E31.03202
G1 X83.218 Y94.928 E31.09357
G1 X82.490 Y94.218 E31.16154
G1 X81.801 Y93.371 E31.23446
G1 X81.349 Y92.680 E31.28963
G1 X82.146 Y92.462 E31.34480
G1 X83.223 Y92.285 E31.41771
G1 X84.239 Y92.236 E31.48569
G1 X85.157 Y92.318 E31.54725
G1 X85.940 Y92.551 E31.60181
G1 X87.121 Y93.237 E31.69309
G1 X88.156 Y91.602 E31.82235
G1 X89.339 Y90.021 E31.95426
G1 X88.280 Y89.161 E32.04545
G1 X87.784 Y88.511 E32.10003
G1 X87.382 Y87.682 E32.16159
G1 X87.068 Y86.715 E32.22955
G1 X86.852 Y85.645 E32.30247
G1 X86.773 Y84.823 E32.35764
G1 X87.579 Y85.000 E32.41281
G1 X88.615 Y85.344 E32.48572
G1 X89.538 Y85.772 E32.55369
G1 X90.313 Y86.271 E32.61525
G1 X90.898 Y86.841 E32.66982
G1 X91.624 Y87.997 E32.76102
G1 X93.336 Y87.013 E32.89294
G1 X95.084 Y86.183 E33.02220
G1 X94.545 Y84.927 E33.11347
G1 X94.408 Y84.122 E33.16805
G1 X94.437 Y83.201 E33.22961
G1 X94.608 Y82.198 E33.29757
G1 X94.914 Y81.150 E33.37049
G1 X95.226 Y80.386 E33.42566
G1 X95.858 Y80.918 E33.48083
G1 X96.616 Y81.703 E33.55374
G1 X97.233 Y82.512 E33.62171
G1 X97.688 Y83.314 E33.68327
G1 X97.941 Y84.090 E33.73784
G1 X98.047 Y85.451 E33.82904
G1 X100.020 Y85.376 E33.96096
G1 X101.953 Y85.452 E34.09022
G1 X102.059 Y84.090 E34.18149
G1 X102.312 Y83.314 E34.23606
G1 X102.767 Y82.512 E34.29762
G1 X103.384 Y81.703 E34.36559
G1 X104.140 Y80.920 E34.43833
G1 X104.776 Y80.391 E34.49356
G1 X105.086 Y81.150 E34.54837
G1 X105.392 Y82.198 E34.62128
G1 X105.563 Y83.201 E34.68925
G1 X105.592 Y84.122 E34.75081
G1 X105.455 Y84.927 E34.80538
G1 X104.916 Y86.183 E34.89666
G1 X106.664 Y87.013 E35.02592
G1 X108.376 Y87.997 E35.15783
G1 X109.102 Y86.841 E35.24904
G1 X109.687 Y86.271 E35.30361
G1 X110.462 Y85.772 E35.36517
G1 X111.385 Y85.344 E35.43313
G1 X112.421 Y85.000 E35.50605
G1 X113.227 Y84.823 E35.56122
G1 X113.148 Y85.645 E35.61639
G1 X112.932 Y86.715 E35.68930
G1 X112.618 Y87.682 E35.75727
G1 X112.216 Y88.511 E35.81883
G1 X111.720 Y89.161 E35.87341
G1 X110.661 Y90.021 E35.96460
G1 X111.844 Y91.602 E36.09651
G1 X112.879 Y93.237 E36.22577
G1 X114.060 Y92.551 E36.31704
G1 X114.843 Y92.318 E36.37161
G1 X115.761 Y92.236 E36.43317
G1 X116.777 Y92.285 E36.50114
G1 X117.854 Y92.462 E36.57405
G1 X118.651 Y92.680 E36.62923
G1 X118.199 Y93.371 E36.68440
G1 X117.510 Y94.218 E36.75731
G1 X116.782 Y94.928 E36.82528
G1 X116.041 Y95.476 E36.88684
G1 X115.301 Y95.821 E36.94141
G1 X113.961 Y96.090 E37.03269
G1 X114.270 Y98.000 E37.16195
G1 X114.433 Y99.968 E37.29386
G1 X115.797 Y99.910 E37.38507
G1 X116.599 Y100.067 E37.43964
G1 X117.449 Y100.421 E37.50120
G1 X118.326 Y100.937 E37.56917
G1 X119.197 Y101.595 E37.64208
G1 X119.802 Y102.158 E37.69726
G1 X119.080 Y102.559 E37.75243
G1 X118.077 Y102.989 E37.82534
G1 X117.102 Y103.280 E37.89331
G1 X116.191 Y103.421 E37.95487
G1 X115.375 Y103.382 E38.00944
G1 X114.064 Y102.998 E38.10072
G1 X113.450 Y104.833 E38.22998
G1 X112.680 Y106.651 E38.36189
G1 X113.915 Y107.233 E38.45308
G1 X114.551 Y107.745 E38.50766
G1 X115.140 Y108.454 E38.56922
G1 X115.677 Y109.318 E38.63718
G1 X116.143 Y110.305 E38.71010
G1 X116.416 Y111.084 E38.76527
G1 X115.591 Y111.105 E38.82044
G1 X114.502 Y111.020 E38.89335
G1 X113.504 Y110.824 E38.96132
G1 X112.632 Y110.525 E39.02288
G1 X111.928 Y110.111 E39.07745
G1 X110.988 Y109.204 E39.16471
