; generated by Slic3r 1.2.9 on 2017-04-16 at 10:36:31

; external perimeters extrusion width = 0.40mm
; perimeters extrusion width = 0.48mm
; infill extrusion width = 0.48mm
; solid infill extrusion width = 0.48mm
; top infill extrusion width = 0.48mm

M107
M104 S210 ; set temperature
G28 ; home all axes
;G1 Z5 F5000 ; lift nozzle

M109 S210 ; wait for temperature to be reached
G21 ; set units to millimeters
G90 ; use absolute coordinates
M82 ; use absolute distances for extrusion
G92 E0
G1 Z0.300 F3600.000
G1 E-2.00000 F600.00000
G92 E0
G1 X84.606 Y82.959 F3600.000
G1 E2.00000 F600.00000
G1 X85.124 Y82.499 E2.04627 F1800.000
G1 X86.527 Y81.531 E2.16017
G1 X92.608 Y78.339 E2.61894
G1 X94.200 Y77.735 E2.73269
G1 X94.873 Y77.569 E2.77904
G1 X96.566 Y77.364 E2.89297
G1 X103.434 Y77.364 E3.35174
G1 X105.126 Y77.569 E3.46564
G1 X105.799 Y77.735 E3.51194 F1800.000
G1 X107.392 Y78.339 E3.62577
G1 X113.473 Y81.531 E4.08454
G1 X114.876 Y82.499 E4.19844
G1 X115.394 Y82.959 E4.24470
G1 X116.524 Y84.234 E4.35857
G1 X120.426 Y89.886 E4.81734
G1 X121.218 Y91.395 E4.93119
G1 X121.463 Y92.042 E4.97745
G1 X121.871 Y93.698 E5.09137
G1 X122.699 Y100.515 E5.55014
G1 X122.699 Y102.220 E5.66404
G1 X122.616 Y102.908 E5.71031
G1 X122.208 Y104.562 E5.82416
G1 X119.773 Y110.984 E6.28293
G1 X118.980 Y112.493 E6.39683
G1 X118.587 Y113.063 E6.44310
G1 X117.457 Y114.339 E6.55696
G1 X112.316 Y118.893 E7.01574
G1 X110.913 Y119.861 E7.12962
G1 X110.300 Y120.183 E7.17588
G1 X108.706 Y120.787 E7.28977
G1 X102.038 Y122.431 E7.74854
G1 X100.346 Y122.636 E7.86242
G1 X99.654 Y122.636 E7.90868
G1 X97.962 Y122.431 E8.02256
G1 X91.294 Y120.787 E8.48133
G1 X89.700 Y120.183 E8.59519
G1 X89.087 Y119.861 E8.64147
G1 X87.684 Y118.893 E8.75536
G1 X82.543 Y114.339 E9.21413
G1 X81.413 Y113.063 E9.32800
G1 X81.019 Y112.493 E9.37431
G1 X80.227 Y110.984 E9.48817
G1 X77.792 Y104.562 E9.94694
G1 X77.384 Y102.908 E10.06079
G1 X77.302 Y102.227 E10.10659
G1 X77.301 Y100.515 E10.22095
G1 X78.129 Y93.698 E10.67972
G1 X78.537 Y92.043 E10.79364
G1 X78.783 Y91.394 E10.83994
G1 X79.574 Y89.886 E10.95376
G1 X83.476 Y84.234 E11.41253
G1 X84.566 Y83.004 E11.52237
G1 X84.961 Y83.360 F3600.000
G1 X85.479 Y82.900 E11.56865 F1800.000
G1 X86.776 Y82.005 E11.67391
G1 X92.857 Y78.814 E12.13269
G1 X94.328 Y78.255 E12.23782
G1 X95.002 Y78.089 E12.28416
G1 X96.566 Y77.899 E12.38946
G1 X103.434 Y77.899 E12.84824
G1 X104.998 Y78.089 E12.95351
G1 X105.671 Y78.255 E12.99980 F1800.000
G1 X107.143 Y78.814 E13.10501
G1 X113.224 Y82.005 E13.56378
G1 X114.521 Y82.900 E13.66905
G1 X115.039 Y83.359 E13.71531
G1 X116.084 Y84.539 E13.82055
G1 X119.985 Y90.190 E14.27933
G1 X120.717 Y91.585 E14.38456
G1 X120.962 Y92.232 E14.43082
G1 X121.340 Y93.763 E14.53611
G1 X122.167 Y100.580 E14.99488
G1 X122.167 Y102.156 E15.10015
G1 X122.084 Y102.843 E15.14641
G1 X121.707 Y104.373 E15.25164
G1 X119.272 Y110.794 E15.71042
G1 X118.539 Y112.189 E15.81569
G1 X118.146 Y112.759 E15.86195
G1 X117.101 Y113.938 E15.96719
G1 X111.961 Y118.492 E16.42597
G1 X110.664 Y119.387 E16.53123
G1 X110.051 Y119.709 E16.57749
G1 X108.578 Y120.267 E16.68275
G1 X101.910 Y121.911 E17.14152
G1 X100.346 Y122.101 E17.24677
G1 X99.654 Y122.101 E17.29303
G1 X98.090 Y121.911 E17.39828
G1 X91.422 Y120.267 E17.85706
G1 X89.949 Y119.709 E17.96229
G1 X89.336 Y119.387 E18.00857
G1 X88.039 Y118.492 E18.11383
G1 X82.899 Y113.938 E18.57261
G1 X81.854 Y112.759 E18.67785
G1 X81.460 Y112.188 E18.72416
G1 X80.728 Y110.794 E18.82939
G1 X78.293 Y104.373 E19.28816
G1 X77.916 Y102.843 E19.39339
G1 X77.834 Y102.163 E19.43919
G1 X77.833 Y100.580 E19.54492
G1 X78.660 Y93.763 E20.00369
G1 X79.038 Y92.232 E20.10898
G1 X79.283 Y91.584 E20.15528
G1 X80.015 Y90.190 E20.26047
G1 X83.916 Y84.539 E20.71925
G1 X84.921 Y83.404 E20.82047
G1 E18.82047 F600.00000
G92 E0
G1 X106.410 Y104.923 F3600.000
G1 E2.00000 F600.00000
G1 X104.848 Y106.486 E2.14759 F1800.000
G1 X102.549 Y107.657 E2.31999
G1 X100.000 Y108.061 E2.49240
G1 X97.451 Y107.657 E2.66480
G1 X95.153 Y106.486 E2.83714
G1 X93.331 Y104.670 E3.00897
G1 X92.155 Y102.361 E3.18203
G1 X91.752 Y99.813 E3.35443
G1 X92.155 Y97.264 E3.52683
G1 X93.327 Y94.964 E3.69923
G1 X95.152 Y93.140 E3.87164
G1 X97.451 Y91.968 E4.04404
G1 X99.977 Y91.568 E4.21485 F1800.000
G1 X102.547 Y91.967 E4.38863
G1 X104.848 Y93.140 E4.56117
G1 X106.673 Y94.964 E4.73357
G1 X107.845 Y97.264 E4.90597
G1 X108.248 Y99.813 E5.07837
G1 X107.845 Y102.361 E5.25078
G1 X106.673 Y104.661 E5.42318
G1 X106.453 Y104.881 E5.44398
G1 X106.032 Y104.545 F3600.000
G1 X104.529 Y106.047 E5.58590 F1800.000
G1 X102.381 Y107.141 E5.74697
G1 X100.000 Y107.519 E5.90804
G1 X97.619 Y107.141 E6.06910
G1 X95.471 Y106.047 E6.23013
G1 X93.770 Y104.351 E6.39062
G1 X92.671 Y102.194 E6.55233
G1 X92.294 Y99.813 E6.71340
G1 X92.671 Y97.431 E6.87446
G1 X93.766 Y95.283 E7.03553
G1 X95.471 Y93.578 E7.19660
G1 X97.619 Y92.484 E7.35766
G1 X99.977 Y92.110 E7.51720 F1800.000
G1 X102.380 Y92.483 E7.67964
G1 X104.529 Y93.578 E7.84079
G1 X106.234 Y95.283 E8.00186
G1 X107.329 Y97.431 E8.16293
G1 X107.706 Y99.813 E8.32399
G1 X107.329 Y102.194 E8.48506
G1 X106.234 Y104.342 E8.64613
G1 X106.074 Y104.502 E8.66126
G1 X105.653 Y104.166 F3600.000
G1 X104.211 Y105.608 E8.79752 F900.000
G1 X102.214 Y106.626 E8.94725
G1 X100.000 Y106.976 E9.09698
G1 X97.786 Y106.626 E9.24671
G1 X95.789 Y105.608 E9.39643
G1 X94.209 Y104.032 E9.54559
G1 X93.187 Y102.026 E9.69594
G1 X92.836 Y99.813 E9.84567
G1 X93.187 Y97.599 E9.99540
G1 X94.204 Y95.602 E10.14513
G1 X95.789 Y94.017 E10.29486
G1 X97.786 Y92.999 E10.44460
G1 X99.978 Y92.652 E10.59286 F900.000
G1 X102.213 Y92.999 E10.74396
G1 X104.211 Y94.017 E10.89372
G1 X105.796 Y95.602 E11.04345
G1 X106.813 Y97.599 E11.19319
G1 X107.164 Y99.813 E11.34292
G1 X106.813 Y102.026 E11.49265
G1 X105.796 Y104.023 E11.64238
G1 X105.695 Y104.124 E11.65185
G1 X105.757 Y104.552 F3600.000
G1 X108.316 Y105.938 F3600.000
G1 X106.741 Y107.444 E11.79741 F1800.000
G1 X105.077 Y108.805 E11.94103
G1 X106.077 Y110.128 E12.05186
G1 X106.260 Y110.549 E12.08249
G1 X106.380 Y111.111 E12.12092
G1 X106.452 Y112.106 E12.18754
G1 X105.675 Y111.481 E12.25416
G1 X105.280 Y111.063 E12.29259
G1 X105.037 Y110.674 E12.32322
G1 X104.516 Y109.099 E12.43405
G1 X102.451 Y109.696 E12.57766
G1 X100.317 Y110.136 E12.72323
G1 X100.587 Y111.771 E12.83394
G1 X100.554 Y112.228 E12.86457
G1 X100.398 Y112.782 E12.90300
G1 X100.000 Y113.696 E12.96962
G1 X99.602 Y112.782 E13.03623
G1 X99.446 Y112.228 E13.07466
G1 X99.413 Y111.771 E13.10529
G1 X99.683 Y110.136 E13.21600
G1 X97.549 Y109.696 E13.36157
G1 X95.484 Y109.099 E13.50518
G1 X94.963 Y110.674 E13.61601
G1 X94.720 Y111.063 E13.64664
G1 X94.325 Y111.481 E13.68507
G1 X93.548 Y112.106 E13.75169
G1 X93.620 Y111.111 E13.81831
G1 X93.740 Y110.549 E13.85674
G1 X93.923 Y110.128 E13.88737
G1 X94.923 Y108.805 E13.99820
G1 X93.259 Y107.444 E14.14182
G1 X91.684 Y105.938 E14.28738
G1 X90.492 Y107.089 E14.39809
G1 X90.097 Y107.321 E14.42872
G1 X89.553 Y107.508 E14.46716
G1 X88.574 Y107.699 E14.53377
G1 X89.100 Y106.852 E14.60038
G1 X89.468 Y106.410 E14.63881
G1 X89.825 Y106.122 E14.66944
G1 X91.324 Y105.416 E14.78015
G1 X90.474 Y103.410 E14.92572
G1 X89.792 Y101.371 E15.06933
G1 X88.200 Y101.837 E15.18016
G1 X87.742 Y101.859 E15.21079
G1 X87.173 Y101.771 E15.24922
G1 X86.218 Y101.486 E15.31584
G1 X87.077 Y100.981 E15.38246
G1 X87.608 Y100.760 E15.42089
G1 X88.058 Y100.671 E15.45152
G1 X89.716 Y100.742 E15.56236
G1 X89.890 Y98.600 E15.70597
G1 X90.235 Y96.448 E15.85154
G1 X88.611 Y96.121 E15.96226
G1 X88.195 Y95.928 E15.99289
G1 X87.732 Y95.586 E16.03132
G1 X87.019 Y94.889 E16.09794
G1 X88.015 Y94.841 E16.16455
G1 X88.588 Y94.892 E16.20298
G1 X89.027 Y95.023 E16.23362
G1 X90.460 Y95.856 E16.34432
G1 X91.628 Y94.016 E16.48989
G1 X92.919 Y92.297 E16.63351
G1 X91.631 Y91.251 E16.74433
G1 X91.353 Y90.887 E16.77497
G1 X91.102 Y90.369 E16.81340
G1 X90.793 Y89.421 E16.88001
G1 X91.698 Y89.841 E16.94663
G1 X92.181 Y90.152 E16.98505
G1 X92.510 Y90.472 E17.01569
G1 X93.393 Y91.877 E17.12651
G1 X95.255 Y90.803 E17.27013
G1 X97.222 Y89.865 E17.41569
G1 X96.568 Y88.342 E17.52639
G1 X96.491 Y87.890 E17.55703
G1 X96.510 Y87.315 E17.59546
G1 X96.677 Y86.332 E17.66207
G1 X97.283 Y87.125 E17.72869
G1 X97.566 Y87.625 E17.76712
G1 X97.708 Y88.061 E17.79776
G1 X97.837 Y89.715 E17.90857
G1 X99.985 Y89.630 E18.05219
G1 X102.163 Y89.713 E18.19776
G1 X102.292 Y88.061 E18.30846
G1 X102.434 Y87.625 E18.33909
G1 X102.717 Y87.125 E18.37752
G1 X103.323 Y86.332 E18.44414
G1 X103.490 Y87.315 E18.51075
G1 X103.509 Y87.890 E18.54918
G1 X103.432 Y88.342 E18.57982
G1 X102.778 Y89.865 E18.69052
G1 X104.745 Y90.803 E18.83609
G1 X106.607 Y91.877 E18.97970
G1 X107.490 Y90.472 E19.09052
G1 X107.819 Y90.152 E19.12116
G1 X108.302 Y89.841 E19.15959
G1 X109.207 Y89.421 E19.22620
G1 X108.898 Y90.369 E19.29281
G1 X108.647 Y90.887 E19.33125
G1 X108.369 Y91.251 E19.36188
G1 X107.081 Y92.297 E19.47271
G1 X108.372 Y94.016 E19.61632
G1 X109.540 Y95.856 E19.76189
G1 X110.973 Y95.023 E19.87260
G1 X111.412 Y94.892 E19.90323
G1 X111.985 Y94.841 E19.94166
G1 X112.981 Y94.889 E20.00828
G1 X112.268 Y95.586 E20.07489
G1 X111.805 Y95.928 E20.11332
G1 X111.389 Y96.121 E20.14396
G1 X109.765 Y96.448 E20.25467
G1 X110.110 Y98.600 E20.40024
G1 X110.284 Y100.742 E20.54386
G1 X111.942 Y100.671 E20.65469
G1 X112.392 Y100.760 E20.68533
G1 X112.923 Y100.981 E20.72376
G1 X113.782 Y101.486 E20.79037
G1 X112.827 Y101.771 E20.85699
G1 X112.258 Y101.859 E20.89542
G1 X111.800 Y101.837 E20.92605
G1 X110.208 Y101.371 E21.03688
G1 X109.526 Y103.410 E21.18050
G1 X108.676 Y105.416 E21.32606
G1 X110.175 Y106.122 E21.43677
G1 X110.532 Y106.410 E21.46740
G1 X110.900 Y106.852 E21.50583
G1 X111.426 Y107.699 E21.57244
G1 X110.447 Y107.508 E21.63905
G1 X109.903 Y107.321 E21.67749
G1 X109.508 Y107.089 E21.70812
G1 X108.359 Y105.979 E21.81482
G1 X108.314 Y106.681 F3600.000
G1 X107.096 Y107.845 E21.92739 F1800.000
G1 X105.815 Y108.893 E22.03796
G1 X106.543 Y109.856 E22.11860
G1 X106.773 Y110.385 E22.15710
G1 X106.911 Y111.036 E22.20158
G1 X106.965 Y111.781 E22.25151
G1 X106.931 Y112.587 E22.30542
G1 X106.882 Y112.925 E22.32818
G1 X106.576 Y112.774 E22.35094
G1 X105.893 Y112.344 E22.40484
G1 X105.311 Y111.876 E22.45478
G1 X104.853 Y111.392 E22.49926
G1 X104.549 Y110.903 E22.53775
G1 X104.170 Y109.757 E22.61840
G1 X102.580 Y110.216 E22.72897
G1 X100.929 Y110.556 E22.84154
G1 X101.126 Y111.746 E22.92211
G1 X101.084 Y112.321 E22.96061
G1 X100.904 Y112.962 E23.00509
G1 X100.605 Y113.647 E23.05502
G1 X100.200 Y114.345 E23.10893
G1 X100.000 Y114.621 E23.13169
G1 X99.800 Y114.345 E23.15444
G1 X99.395 Y113.647 E23.20835
G1 X99.096 Y112.962 E23.25828
G1 X98.916 Y112.321 E23.30276
G1 X98.874 Y111.746 E23.34126
G1 X99.071 Y110.556 E23.42183
G1 X97.420 Y110.216 E23.53440
G1 X95.830 Y109.757 E23.64497
G1 X95.451 Y110.903 E23.72562
G1 X95.147 Y111.392 E23.76412
G1 X94.689 Y111.876 E23.80860
G1 X94.107 Y112.344 E23.85853
G1 X93.424 Y112.774 E23.91244
G1 X93.118 Y112.925 E23.93519
G1 X93.069 Y112.587 E23.95795
G1 X93.035 Y111.781 E24.01186
G1 X93.089 Y111.036 E24.06179
G1 X93.227 Y110.385 E24.10627
G1 X93.457 Y109.856 E24.14477
G1 X94.185 Y108.893 E24.22541
G1 X92.904 Y107.845 E24.33599
G1 X91.686 Y106.681 E24.44855
G1 X90.818 Y107.518 E24.52913
G1 X90.321 Y107.810 E24.56762
G1 X89.692 Y108.026 E24.61211
G1 X88.958 Y108.170 E24.66204
G1 X88.154 Y108.233 E24.71594
G1 X87.816 Y108.225 E24.73854
G1 X87.927 Y107.901 E24.76141
G1 X88.270 Y107.173 E24.81516
G1 X88.665 Y106.539 E24.86509
G1 X89.090 Y106.026 E24.90957
G1 X89.539 Y105.665 E24.94807
G1 X90.630 Y105.151 E25.02864
G1 X89.973 Y103.599 E25.14121
G1 X89.448 Y102.030 E25.25178
G1 X88.289 Y102.369 E25.33242
G1 X87.713 Y102.396 E25.37092
G1 X87.055 Y102.295 E25.41540
G1 X86.339 Y102.081 E25.46533
G1 X85.598 Y101.763 E25.51924
G1 X85.300 Y101.597 E25.54200
G1 X85.549 Y101.365 E25.56475
G1 X86.193 Y100.879 E25.61866
G1 X86.838 Y100.500 E25.66859
G1 X87.452 Y100.244 E25.71308
G1 X88.018 Y100.133 E25.75157
G1 X89.224 Y100.185 E25.83223
G1 X89.358 Y98.535 E25.94280
G1 X89.625 Y96.872 E26.05537
G1 X88.442 Y96.634 E26.13595
G1 X87.920 Y96.390 E26.17444
G1 X87.385 Y95.995 E26.21892
G1 X86.850 Y95.473 E26.26885
G1 X86.341 Y94.847 E26.32277
G1 X86.154 Y94.562 E26.34552
G1 X86.483 Y94.472 E26.36828
G1 X87.279 Y94.341 E26.42219
G1 X88.026 Y94.305 E26.47211
G1 X88.689 Y94.364 E26.51660
G1 X89.241 Y94.528 E26.55510
G1 X90.284 Y95.134 E26.63567
G1 X91.187 Y93.712 E26.74824
G1 X92.181 Y92.388 E26.85881
G1 X91.244 Y91.627 E26.93945
G1 X90.894 Y91.169 E26.97795
G1 X90.604 Y90.569 E27.02244
G1 X90.373 Y89.859 E27.07236
G1 X90.213 Y89.068 E27.12627
G1 X90.180 Y88.729 E27.14903
G1 X90.513 Y88.802 E27.17178
G1 X91.279 Y89.056 E27.22570
G1 X91.957 Y89.371 E27.27562
G1 X92.517 Y89.731 E27.32010
G1 X92.929 Y90.133 E27.35860
G1 X93.572 Y91.155 E27.43925
G1 X95.006 Y90.329 E27.54981
G1 X96.527 Y89.603 E27.66238
G1 X96.051 Y88.495 E27.74295
G1 X95.954 Y87.927 E27.78145
G1 X95.976 Y87.262 E27.82593
G1 X96.101 Y86.525 E27.87586
G1 X96.328 Y85.750 E27.92977
G1 X96.456 Y85.435 E27.95253
G1 X96.717 Y85.654 E27.97529
G1 X97.277 Y86.235 E28.02920
G1 X97.731 Y86.829 E28.07912
G1 X98.059 Y87.408 E28.12361
G1 X98.237 Y87.956 E28.16211
G1 X98.331 Y89.160 E28.24275
G1 X99.985 Y89.094 E28.35332
G1 X101.669 Y89.159 E28.46589
G1 X101.763 Y87.956 E28.54645
G1 X101.941 Y87.408 E28.58495
G1 X102.269 Y86.829 E28.62944
G1 X102.723 Y86.235 E28.67936
G1 X103.282 Y85.656 E28.73311
G1 X103.545 Y85.437 E28.75598
G1 X103.672 Y85.750 E28.77858
G1 X103.899 Y86.525 E28.83249
G1 X104.024 Y87.262 E28.88242
G1 X104.046 Y87.927 E28.92690
G1 X103.949 Y88.495 E28.96540
G1 X103.473 Y89.603 E29.04597
G1 X104.994 Y90.329 E29.15853
G1 X106.428 Y91.155 E29.26910
G1 X107.071 Y90.133 E29.34975
G1 X107.483 Y89.731 E29.38825
G1 X108.043 Y89.371 E29.43273
G1 X108.721 Y89.056 E29.48265
G1 X109.487 Y88.802 E29.53657
G1 X109.820 Y88.729 E29.55932
G1 X109.787 Y89.068 E29.58208
G1 X109.627 Y89.859 E29.63599
G1 X109.396 Y90.569 E29.68591
G1 X109.106 Y91.169 E29.73040
G1 X108.756 Y91.627 E29.76890
G1 X107.819 Y92.388 E29.84954
G1 X108.813 Y93.712 E29.96011
G1 X109.716 Y95.134 E30.07268
G1 X110.759 Y94.528 E30.15325
G1 X111.311 Y94.364 E30.19175
G1 X111.974 Y94.305 E30.23623
G1 X112.721 Y94.341 E30.28616
G1 X113.517 Y94.472 E30.34007
G1 X113.846 Y94.562 E30.36283
G1 X113.659 Y94.847 E30.38558
G1 X113.150 Y95.473 E30.43950
G1 X112.615 Y95.995 E30.48943
G1 X112.080 Y96.390 E30.53391
G1 X111.558 Y96.634 E30.57240
G1 X110.375 Y96.872 E30.65298
G1 X110.642 Y98.535 E30.76555
G1 X110.776 Y100.185 E30.87612
G1 X111.982 Y100.133 E30.95678
G1 X112.548 Y100.244 E30.99527
G1 X113.162 Y100.500 E31.03975
G1 X113.807 Y100.879 E31.08969
G1 X114.451 Y101.365 E31.14360
G1 X114.700 Y101.597 E31.16635
G1 X114.402 Y101.763 E31.18911
G1 X113.661 Y102.081 E31.24302
G1 X112.945 Y102.295 E31.29295
G1 X112.287 Y102.396 E31.33743
G1 X111.711 Y102.369 E31.37593
G1 X110.552 Y102.030 E31.45657
G1 X110.027 Y103.599 E31.56714
G1 X109.370 Y105.151 E31.67971
G1 X110.461 Y105.665 E31.76028
G1 X110.910 Y106.026 E31.79878
G1 X111.335 Y106.539 E31.84326
G1 X111.730 Y107.173 E31.89319
G1 X112.074 Y107.903 E31.94710
G1 X112.187 Y108.225 E31.96986
G1 X111.846 Y108.233 E31.99261
G1 X111.042 Y108.170 E32.04652
G1 X110.308 Y108.026 E32.09645
G1 X109.679 Y107.810 E32.14093
G1 X109.182 Y107.518 E32.17943
G1 X108.357 Y106.722 E32.25600
G1 X108.312 Y107.423 F3600.000
G1 X107.452 Y108.247 E32.33557 F900.000
G1 X106.553 Y108.981 E32.41309
G1 X107.009 Y109.584 E32.46356
G1 X107.285 Y110.220 E32.50992
G1 X107.443 Y110.960 E32.56045
G1 X107.502 Y111.773 E32.61489
G1 X107.465 Y112.638 E32.67272
G1 X107.352 Y113.405 E32.72453
G1 X107.010 Y113.585 E32.75038
G1 X106.314 Y113.242 E32.80219
G1 X105.582 Y112.781 E32.86001
G1 X104.946 Y112.270 E32.91446
G1 X104.427 Y111.721 E32.96499
G1 X104.060 Y111.131 E33.01135
G1 X103.823 Y110.414 E33.06182
G1 X102.708 Y110.736 E33.13934
G1 X101.542 Y110.977 E33.21891
G1 X101.665 Y111.722 E33.26935
G1 X101.614 Y112.414 E33.31571
G1 X101.410 Y113.142 E33.36625
G1 X101.084 Y113.889 E33.42069
G1 X100.650 Y114.638 E33.47851
